X:1
T:Title
%%score 1 2 3
L:1/8
M:2/2
K:C
V:1 treble nm="Part_1"
V:2 treble-8 nm="Part_2"
V:3 treble-8 nm="Part_3"
V:1
 (3:2:2D8 C4 | A,8 | B,8 | (3:2:2C8 D4 | E8 | D4 D4- | D2 B,2 ^C4 | D8 | z4 F4- | F4 D4 | %10
 C4 E2 F2 | G6 E2 | F8 | E8 | z4 F4 | A6 G2 | A2 B2 c4- | c2 _B2 A4- | A4 G4 | F4 G4- | %20
 G2 F2 E2 D2 | F4 A4 | G4 E4 | F4 D4- | D4 z4 | C4 A,4- | A,4 B,4 | C6 B,2 | D8 || %29
[M:3/2] A6 B2 c2 B2 | G2 A4 G3 E F2 | G8 z2 E2 | F3 G A2 c3 B G2 | A3 G F2 G2 E3 D | %34
 F4 z2 G2 F2 A2- | A2 _B3 A A4 G2 | A12 ||[M:2/2] A8 | A8 | G8 | A8- | A8 | A8 | A8 | F8 | G4 A4- | %46
 A4 F4- | F4 G4- | G2 F2 F4- | F4 E4 | F8- | F8 | z4 A4- | A2 G2 A4 | _B8 | A8 | G4 A4 | _B4 c4 | %58
 A4 F4 | A4 _B4- | B2 A2 c4 | d4 c4 | A4 A4- | A2 G2 G2 F2 | A8 || A8- | A8 | F6 E2 | G8 | E4 D4 | %70
 E8 | F2 E2 D4- | D4 C4 | D8 | z4 F4- | F4 D4 | C4 E4 | G6 E2 | F8 | E8 | z4 F4 | A6 G2 | %82
 A2 B2 c4- | c2 _B2 A4- | A4 G4 | F4 G4- | G2 F2 E2 D2 | F4 A4 | G4 E4 | F4 D4- | D4 z4 | C4 A,4- | %92
 A,4 B,4 | C6 B,2 | D8 | D8 |] %96
V:2
 D8 | F8 | G8 | A8 | G4 E4 | F8 | E8 | D8- | D8 | z8 | F4 G4 | E4 C4 | D8 | z4 C4- | C4 D4 | %15
 F6 E2 | F8- | F8 | c4 _B4 | A4 _B4 | G8 | F8 | C8 | D8 | F4 G4 | A8 | F4 G4 | E8 | D8 || %29
[M:3/2] c4 d4 c2 d2 | e2 c2 d2 B2 A4 | G4 z2 c2 B2 G2 | A4 F4 A2 B2 | c4 A2 _B2 G4 | %34
 F2 F3 D E2 F4 | c2 d4 c2 _B4 | A12 ||[M:2/2] A8 | c8- | c8 | F8- | F8 | z8 | c8 | d8 | _B4 c4 | %46
 A8 | _B8 | A4 F4 | G8 | F8 | z4 A4 | B4 c4- | c4 F4 | G8 | F8 | z4 c4 | d4 c4 | f6 e2 | c4 d4- | %60
 d2 c2 A4 | G4 A4- | A4 c4 | _B8 | A8 || A8- | A8 | A8 | _B8 | A4 F4 | G8 | A4 F4 | E8 | D8- | D8 | %75
 z8 | F4 G4 | E4 C4 | D8 | z4 C4- | C4 D4 | F6 E2 | F8- | F8 | c4 _B4 | A4 _B4 | G8 | F8 | C8 | %89
 D8 | F4 G4 | A8 | F4 G4 | E8 | D8 | D8 |] %96
V:3
 A8 | D8 | z4 E4 | A,8 | C8 | D8 | A,8 | A8- | A8 | F4 G4 | A4 B4 | c4 c4- | c2 B2 B2 A2 | c8 | %14
 e4 d4 | c4 A2 B2 | c8 | f8 | e4 d4 | c4 d4- | d2 c2 B2 A2 | c8- | c8 | A8 | D4 B,4 | A,4 D4- | %26
 D4 E4 | G6 F2 | A8 ||[M:3/2] A4 D4 A2 G2 | E2 F2 D2 d4 c2 | d4 e4 d2 B2 | c4 f4 e3 d | %33
 e2 c4 d4 B2 | c4 d2 B2 AB c2 | F2 f4 e4 d2 | e12 ||[M:2/2] A8 | F8 | C8 | c8- | c8 | c4 A4 | F8 | %44
 D8 | d4 e4 | c8 | d8 | c4 c4- | c2 B2 B2 A2 | c8- | c8 | d4 e4 | c8 | z8 | c8 | e8 | f4 e4 | d8 | %59
 e4 f4- | f2 e2 d2 f2 | g4 f4 | e8 | d8 | e8 || e8- | e8 | c8 | d8 | c4 A4 | B8 | c4 A4- | A4 G4 | %73
 A8- | A8 | F4 G4 | A4 B4 | c4 c4- | c2 B2 B2 A2 | c8 | e4 d4 | c4 A2 B2 | c8 | f8 | e4 d4 | %85
 c4 d4- | d2 c2 B2 A2 | c8- | c8 | A8 | D4 B,4 | A,4 D4- | D4 E4 | G6 F2 | A8 | A8 |] %96

